robot-angry.svg

<svg fill="currentColor" viewBox="0 0 24 24"><path d="M22 14h-1c0-3.87-3.13-7-7-7h-1V5.73A2 2 0 1 0 10 4c0 .74.4 1.39 1 1.73V7h-1c-3.87 0-7 3.13-7 7H2c-.55 0-1 .45-1 1v3c0 .55.45 1 1 1h1v1a2 2 0 0 0 2 2h14c1.11 0 2-.89 2-2v-1h1c.55 0 1-.45 1-1v-3c0-.55-.45-1-1-1M7.5 18A2.5 2.5 0 0 1 5 15.5c0-.82.4-1.54 1-2l3.83 2.88C9.5 17.32 8.57 18 7.5 18m9 0c-1.07 0-2-.68-2.33-1.62L18 13.5c.6.46 1 1.18 1 2a2.5 2.5 0 0 1-2.5 2.5"/></svg>

<svg  viewBox="0 0 24 24" fill="currentColor"><path  d="M22 14H21C21 10.13 17.87 7 14 7H13V5.73C13.6 5.39 14 4.74 14 4C14 2.9 13.11 2 12 2S10 2.9 10 4C10 4.74 10.4 5.39 11 5.73V7H10C6.13 7 3 10.13 3 14H2C1.45 14 1 14.45 1 15V18C1 18.55 1.45 19 2 19H3V20C3 21.11 3.9 22 5 22H19C20.11 22 21 21.11 21 20V19H22C22.55 19 23 18.55 23 18V15C23 14.45 22.55 14 22 14M7.5 18C6.12 18 5 16.88 5 15.5C5 14.68 5.4 13.96 6 13.5L9.83 16.38C9.5 17.32 8.57 18 7.5 18M16.5 18C15.43 18 14.5 17.32 14.17 16.38L18 13.5C18.6 13.96 19 14.68 19 15.5C19 16.88 17.88 18 16.5 18Z"/></svg>
